icons/1_Primary/Rockstar Games.svg

<svg xmlns="http://www.w3.org/2000/svg" width="1024" height="1024" fill="none">
   <g clip-path="url(#a)">
      <path fill="#F8C18C" d="M512 1024c282.77 0 512-229.23 512-512S794.77 0 512 0 0 229.23 0 512s229.23 512 512 512Z"/>
      <path fill="#fff" d="m677.52 597.2-17.33-108.86-63.7 108h-12.1c-7.26-12.5-10.08-30.64-10.08-41.93 0-18.54 1.21-36.69 1.21-60.47 0-31.45-9.27-48-33.87-54v-.81c52-7.26 75.79-41.93 75.79-90.31 0-68.94-46-83.86-106-83.86H349.76l-68.53 324.17h85.87l25-118.12h57.25c30.64 0 43.14 14.92 43.14 43.54 0 21.77-2.42 39.11-2.42 55.63 0 6 1.21 20.56 5.64 26.2l62.08 65.71L504.17 777l114.5-68.13 85.47 65.71-15.73-108.45 98.37-68.94-109.26.01ZM475.14 410.54H406.6l16.53-78.21h63.7c22.58 0 46.36 6 46.36 33.46 0 35.07-27.01 44.75-58.05 44.75Z"/>
   </g>
   <defs>
      <clipPath id="a">
         <path fill="#fff" d="M0 0h1024v1024H0z"/>
      </clipPath>
   </defs>
</svg>

<svg width="1024" height="1024" viewBox="0 0 1024 1024" fill="none" xmlns="http://www.w3.org/2000/svg">
<g clip-path="url(#clip0_2_3366)">
<path d="M512 1024C794.77 1024 1024 794.77 1024 512C1024 229.23 794.77 0 512 0C229.23 0 0 229.23 0 512C0 794.77 229.23 1024 512 1024Z" fill="#F8C18C"/>
<path d="M677.52 597.2L660.19 488.34L596.49 596.34H584.39C577.13 583.84 574.31 565.7 574.31 554.41C574.31 535.87 575.52 517.72 575.52 493.94C575.52 462.49 566.25 445.94 541.65 439.94V439.13C593.65 431.87 617.44 397.2 617.44 348.82C617.44 279.88 571.44 264.96 511.44 264.96H349.76L281.23 589.13H367.1L392.1 471.01H449.35C479.99 471.01 492.49 485.93 492.49 514.55C492.49 536.32 490.07 553.66 490.07 570.18C490.07 576.18 491.28 590.74 495.71 596.38L557.79 662.09L504.17 777L618.67 708.87L704.14 774.58L688.41 666.13L786.78 597.19L677.52 597.2ZM475.14 410.54H406.6L423.13 332.33H486.83C509.41 332.33 533.19 338.33 533.19 365.79C533.19 400.86 506.18 410.54 475.14 410.54Z" fill="white"/>
</g>
<defs>
<clipPath id="clip0_2_3366">
<rect width="1024" height="1024" fill="white"/>
</clipPath>
</defs>
</svg>
